X:33
T:Camptown Races
C:Stephen Foster
R:Reel
M:4/4
L:1/8
K:G
|:d2d2B2d2|e2d2B4|B2A6|B2A6|
|:d2d2B2d2|e2d2B4|A2AAB2A2|G8|
G2GGB2d2|g8|e2eeg2e2|d8|
d2d2BBdd|e2d2B4|A2AAB2A2|G8:|
